mockup/templates/main/build/images/small/new.svg

<svg xmlns="http://www.w3.org/2000/svg" width="24" height="24"><g fill="none" fill-rule="evenodd"><rect width="24" height="24" fill="#394791" rx="2"/><path fill="#FFF" fill-rule="nonzero" d="M7.967 15H6.734l-2.862-3.915V15H2.594V8.997h1.314l2.781 3.771V8.997h1.278V15zm5.436 0H9.155V8.997h4.248v1.125h-2.97v1.269h2.907v1.125h-2.907v1.359h2.97V15zm6.948 0h-1.359l-1.053-4.122L16.895 15h-1.359l-1.719-6.003h1.431l1.053 4.338 1.143-4.338h.999l1.134 4.338 1.044-4.338h1.44L20.351 15z"/></g></svg>

<svg xmlns="http://www.w3.org/2000/svg" width="24" height="24" viewBox="0 0 24 24">
  <g fill="none" fill-rule="evenodd">
    <rect width="24" height="24" fill="#394791" rx="2"/>
    <path fill="#FFF" fill-rule="nonzero" d="M7.967,15 L6.734,15 L3.872,11.085 L3.872,15 L2.594,15 L2.594,8.997 L3.908,8.997 L6.689,12.768 L6.689,8.997 L7.967,8.997 L7.967,15 Z M13.403,15 L9.155,15 L9.155,8.997 L13.403,8.997 L13.403,10.122 L10.433,10.122 L10.433,11.391 L13.34,11.391 L13.34,12.516 L10.433,12.516 L10.433,13.875 L13.403,13.875 L13.403,15 Z M20.351,15 L18.992,15 L17.939,10.878 L16.895,15 L15.536,15 L13.817,8.997 L15.248,8.997 L16.301,13.335 L17.444,8.997 L18.443,8.997 L19.577,13.335 L20.621,8.997 L22.061,8.997 L20.351,15 Z"/>
  </g>
</svg>
